src/Icon/svgs/eye.svg

<svg width="24" height="24" viewBox="0 0 24 24" fill="none" xmlns="http://www.w3.org/2000/svg">
<path fill-rule="evenodd" clip-rule="evenodd" d="M4 12C6 16.001 8.66667 18.0015 12 18.0015C15.3333 18.0015 18 16.001 20 12C18 8 15.3333 6 12 6C8.66667 6 6 8 4 12ZM2.21105 12.8942C1.92962 12.3312 1.92965 11.6686 2.21115 11.1056C4.52415 6.47957 7.83024 4 12 4C16.1698 4 19.4758 6.47957 21.7889 11.1056C22.0703 11.6686 22.0704 12.3312 21.7889 12.8942C19.476 17.5213 16.1699 20.0015 12 20.0015C7.83009 20.0015 4.52401 17.5213 2.21105 12.8942ZM12 8C12.5523 8 13 8.44772 13 9C13 9.55228 12.5523 10 12 10C10.8954 10 10 10.8954 10 12C10 12.1899 10.0262 12.3754 10.0772 12.5532C10.3209 13.4027 11.1021 14 12 14C13.1046 14 14 13.1046 14 12C14 11.4477 14.4477 11 15 11C15.5523 11 16 11.4477 16 12C16 14.2091 14.2091 16 12 16C10.204 16 8.64294 14.8063 8.15476 13.1047C8.05243 12.748 8 12.377 8 12C8 9.79086 9.79086 8 12 8Z" fill="#1B1C1D"/>
</svg>

<svg xmlns="http://www.w3.org/2000/svg" width="24" height="24" fill="none"><path fill-rule="evenodd" d="M4 12c2 4.001 4.667 6.002 8 6.002s6-2 8-6.001c-2-4-4.667-6-8-6s-6 2-8 6zm-1.789.894a2 2 0 0 1 0-1.789C4.524 6.48 7.83 4 12 4s7.476 2.48 9.789 7.106a2 2 0 0 1 0 1.789c-2.313 4.627-5.619 7.107-9.789 7.107s-7.476-2.48-9.789-7.107zM12 8a1 1 0 1 1 0 2 2 2 0 0 0-1.923 2.553A2 2 0 0 0 14 12a1 1 0 1 1 2 0 4 4 0 1 1-4-4z" fill="#1B1C1D"/></svg>
